images/logo-svg.svg

<svg width="178" height="87" fill="none" xmlns="http://www.w3.org/2000/svg"><path d="M10.95 37.8814L0 32.8363l11.8544-5.4746c.3361-16.3779 16.1595-19.92829 22.7219-19.29272 6.5624.6363 25.6535 12.34532 17.961 36.26232-2.6212 8.1506-2.0024 29.239 28.5858 27.2914-2.2975 4.3299-13.0817 22.2894-48.1818 10.8645C23.2099 79.3196 9.34357 63.6387 10.95 37.8814z" fill="#FFBD54"/><path d="M110.818 32.7034c.96-11.6009-5.053-22.1163-8.576-24.53874-3.2875-2.25955-3.2992 7.49534-6.2265 12.84574-4.3459-1.811-9.1609-2.8279-14.2352-2.8279-5.0648 0-9.8717 1.0125-14.2104 2.8177-2.9221-5.3534-2.9367-15.09509-6.2212-12.837-3.5198 2.4122-9.5211 12.921-8.5773 24.4993-3.6227 5.0816-5.7369 11.1669-5.7369 17.7133 0 17.7805 15.5568 30.9674 34.7451 30.9674 19.1894 0 34.7454-13.1869 34.7454-30.9674 0-6.5288-2.104-12.5989-5.707-17.6724z" fill="#78C0DE"/><path d="M109.119 52.411c.898-15.9169 6.977-18.1173 7.775-27.8509C118 11.0817 127.285 1.28155 131.872.0747093 136.459-1.12921 130.608 12.5493 134.719 17.1919c8.6-2.9813 14.061-.4427 18.374 4.2232 4.316 4.6674-1.317 9.1244 7.13 7.9293 3.475-.4931 7.087-.377 10.11.393.286-.1892.595-.3507.931-.4668 2.378-.8233 5.052.6619 5.975 3.3217.348 1.0074.393 2.0382.188 2.9762.105.5136.149 1.0586.116 1.6379-.466 8.182-10.549 19.4513-16.813 20.2724-6.264.8226-12.915-.2594-13.085 12.2737-.225 16.6928-37.176 23.299-46.227 6.352 6.624-4.7916 7.016-11.5373 7.701-23.6935z" fill="#000"/><path d="M136.872 22.1398c4.325.3821 7.761-1.9154 11.106-4.4913-1.345-.1658-2.831-.1761-4.498.0139-2.507-4.5308 4.754-14.6166.794-14.47049-3.569.12711-12.703 5.01806-16.914 13.88309 3.056 2.0536 5.488 5.2825 9.512 5.0648z" fill="#000"/><path d="M38.1417 34.4355c-.5165-.1549-1.0491-.1965-1.5787-.1206-1.5466.2207-2.8535 1.4333-3.2443 2.9996l-3.4693 12.9619-6.9182-11.4979c-.8679-1.3836-2.4743-2.1675-3.9997-1.9498-.5202.0745-1.0008.2586-1.4297.5494-.9709.599-1.64 1.5012-1.8862 2.5444-.2367.9921-.0585 2.0273.4843 2.8922l11.7025 19.6478c.084.1695.2148.4149.4427.6144.0796.0891.1717.1621.2754.2206 0 .0015 0 .0015.0007.0022l.1038.149.1439.1089c.0519.0394.111.0811.1782.1183l.0278.1943.4939.1651.1512.1125 1.1199.2419.3331.0628.1666-.0241c.2849.0146.496-.0154.618-.0322.1666-.0234.3843-.0548.6538-.1497l.2521-.0358.206-.1418 1.0052-.6457.206-.2747c.0599-.0665.1468-.1622.236-.2996.0701-.0818.13-.1724.1746-.271.0299-.0475.0606-.0964.0891-.1468.0058-.0095.0117-.0183.0168-.0278.0979-.1052.1761-.2272.2316-.3594.0993-.1863.1797-.4076.225-.6188l5.8479-22.1352c.2864-1.0074.1673-2.0514-.3353-2.9382-.5325-.9417-1.4392-1.6255-2.5247-1.9162zM81.5787 34.2806c-9.318.1629-16.8199 8.1031-16.722 17.7192.2396 9.6876 7.8475 17.2019 17.3203 17.1055h.0102c4.986-.0877 9.0214-1.6613 12.3308-4.8106.8057-.7612 1.2455-1.7299 1.2704-2.8002.0336-1.3748-.6276-2.5795-1.269-3.2611-.6903-.7911-1.9023-1.2485-3.256-1.2251-1.3595.0241-2.6146.5333-3.4656 1.4012-1.0922.8197-2.9923 1.3668-4.8764 1.4004-.2659.0044-.5289-.0022-.7809-.0182-1.9674-.1337-4.2021-1.1192-5.311-2.3436l-.0899-.0906c-.5048-.4609-.9533-1.1148-1.3047-1.8891l18.5922-.3244c2.4217-.0424 4.2889-1.5473 4.5957-3.6812.0724-.2681.0855-.561.0797-.8985l-.0095-.4011c-.7189-9.364-7.9168-16.0433-17.1143-15.8826zm7.64 12.7844l-14.1768.2476c.9701-1.9191 3.1164-3.9668 6.6683-4.2268 3.6403.2564 6.2256 2.1448 7.5085 3.9792zM138.074 49.6825c2.535.2644 4.897-1.6247 5.158-4.1253.264-2.546-1.616-4.834-4.194-5.1028l-.242-.0256.785-7.5289c.27-2.5876-1.545-4.8259-4.132-5.0962-2.622-.274-4.887 1.5392-5.157 4.126l-.787 7.5282-.485-.0504c-2.588-.2696-4.827 1.5451-5.097 4.1334-.265 2.5437 1.588 4.8295 4.133 5.0962l.485.0504-1.635 15.6642c-.463 4.4182 2.757 8.3894 7.177 8.8511 2.587.2703 4.825-1.5436 5.097-4.1326.227-2.1726-.979-4.0991-2.87-4.85l1.52-14.564.244.0263z" fill="#fff"/></svg>

<svg width="178" height="87" viewBox="0 0 178 87" fill="none" xmlns="http://www.w3.org/2000/svg">
<path d="M10.95 37.8814L0 32.8363L11.8544 27.3617C12.1905 10.9838 28.0139 7.43341 34.5763 8.06898C41.1387 8.70528 60.2298 20.4143 52.5373 44.3313C49.9161 52.4819 50.5349 73.5703 81.1231 71.6227C78.8256 75.9526 68.0414 93.9121 32.9413 82.4872C23.2099 79.3196 9.34357 63.6387 10.95 37.8814Z" fill="#FFBD54"/>
<path d="M110.818 32.7034C111.778 21.1025 105.765 10.5871 102.242 8.16466C98.9545 5.90511 98.9428 15.66 96.0155 21.0104C91.6696 19.1994 86.8546 18.1825 81.7803 18.1825C76.7155 18.1825 71.9086 19.195 67.5699 21.0002C64.6478 15.6468 64.6332 5.90511 61.3487 8.1632C57.8289 10.5754 51.8276 21.0842 52.7714 32.6625C49.1487 37.7441 47.0345 43.8294 47.0345 50.3758C47.0345 68.1563 62.5913 81.3432 81.7796 81.3432C100.969 81.3432 116.525 68.1563 116.525 50.3758C116.525 43.847 114.421 37.7769 110.818 32.7034Z" fill="#78C0DE"/>
<path d="M109.119 52.411C110.017 36.4941 116.096 34.2937 116.894 24.5601C118 11.0817 127.285 1.28155 131.872 0.0747093C136.459 -1.12921 130.608 12.5493 134.719 17.1919C143.319 14.2106 148.78 16.7492 153.093 21.4151C157.409 26.0825 151.776 30.5395 160.223 29.3444C163.698 28.8513 167.31 28.9674 170.333 29.7374C170.619 29.5482 170.928 29.3867 171.264 29.2706C173.642 28.4473 176.316 29.9325 177.239 32.5923C177.587 33.5997 177.632 34.6305 177.427 35.5685C177.532 36.0821 177.576 36.6271 177.543 37.2064C177.077 45.3884 166.994 56.6577 160.73 57.4788C154.466 58.3014 147.815 57.2194 147.645 69.7525C147.42 86.4453 110.469 93.0515 101.418 76.1045C108.042 71.3129 108.434 64.5672 109.119 52.411Z" fill="black"/>
<path d="M136.872 22.1398C141.197 22.5219 144.633 20.2244 147.978 17.6485C146.633 17.4827 145.147 17.4724 143.48 17.6624C140.973 13.1316 148.234 3.0458 144.274 3.19191C140.705 3.31902 131.571 8.20997 127.36 17.075C130.416 19.1286 132.848 22.3575 136.872 22.1398Z" fill="black"/>
<path d="M38.1417 34.4355C37.6252 34.2806 37.0926 34.239 36.563 34.3149C35.0164 34.5356 33.7095 35.7482 33.3187 37.3145L29.8494 50.2764L22.9312 38.7785C22.0633 37.3949 20.4569 36.611 18.9315 36.8287C18.4113 36.9032 17.9307 37.0873 17.5018 37.3781C16.5309 37.9771 15.8618 38.8793 15.6156 39.9225C15.3789 40.9146 15.5571 41.9498 16.0999 42.8147L27.8024 62.4625C27.8864 62.632 28.0172 62.8774 28.2451 63.0769C28.3247 63.166 28.4168 63.239 28.5205 63.2975C28.5205 63.299 28.5205 63.299 28.5212 63.2997L28.625 63.4487L28.7689 63.5576C28.8208 63.597 28.8799 63.6387 28.9471 63.6759L28.9749 63.8702L29.4688 64.0353L29.62 64.1478L30.7399 64.3897L31.073 64.4525L31.2396 64.4284C31.5245 64.443 31.7356 64.413 31.8576 64.3962C32.0242 64.3728 32.2419 64.3414 32.5114 64.2465L32.7635 64.2107L32.9695 64.0689L33.9747 63.4232L34.1807 63.1485C34.2406 63.082 34.3275 62.9863 34.4167 62.8489C34.4868 62.7671 34.5467 62.6765 34.5913 62.5779C34.6212 62.5304 34.6519 62.4815 34.6804 62.4311C34.6862 62.4216 34.6921 62.4128 34.6972 62.4033C34.7951 62.2981 34.8733 62.1761 34.9288 62.0439C35.0281 61.8576 35.1085 61.6363 35.1538 61.4251L41.0017 39.2899C41.2881 38.2825 41.169 37.2385 40.6664 36.3517C40.1339 35.41 39.2272 34.7262 38.1417 34.4355Z" fill="white"/>
<path d="M81.5787 34.2806C72.2607 34.4435 64.7588 42.3837 64.8567 51.9998C65.0963 61.6874 72.7042 69.2017 82.177 69.1053H82.1872C87.1732 69.0176 91.2086 67.444 94.518 64.2947C95.3237 63.5335 95.7635 62.5648 95.7884 61.4945C95.822 60.1197 95.1608 58.915 94.5194 58.2334C93.8291 57.4423 92.6171 56.9849 91.2634 57.0083C89.9039 57.0324 88.6488 57.5416 87.7978 58.4095C86.7056 59.2292 84.8055 59.7763 82.9214 59.8099C82.6555 59.8143 82.3925 59.8077 82.1405 59.7917C80.1731 59.658 77.9384 58.6725 76.8295 57.4481L76.7396 57.3575C76.2348 56.8966 75.7863 56.2427 75.4349 55.4684L94.0271 55.144C96.4488 55.1016 98.316 53.5967 98.6228 51.4628C98.6952 51.1947 98.7083 50.9018 98.7025 50.5643L98.693 50.1632C97.9741 40.7992 90.7762 34.1199 81.5787 34.2806ZM89.2187 47.065L75.0419 47.3126C76.012 45.3935 78.1583 43.3458 81.7102 43.0858C85.3505 43.3422 87.9358 45.2306 89.2187 47.065Z" fill="white"/>
<path d="M138.074 49.6825C140.609 49.9469 142.971 48.0578 143.232 45.5572C143.496 43.0112 141.616 40.7232 139.038 40.4544L138.796 40.4288L139.581 32.8999C139.851 30.3123 138.036 28.074 135.449 27.8037C132.827 27.5297 130.562 29.3429 130.292 31.9297L129.505 39.4579L129.02 39.4075C126.432 39.1379 124.193 40.9526 123.923 43.5409C123.658 46.0846 125.511 48.3704 128.056 48.6371L128.541 48.6875L126.906 64.3517C126.443 68.7699 129.663 72.7411 134.083 73.2028C136.67 73.4731 138.908 71.6592 139.18 69.0702C139.407 66.8976 138.201 64.9711 136.31 64.2202L137.83 49.6562L138.074 49.6825Z" fill="white"/>
</svg>
